X:1
T:Reynardine (All on the mountain high)
M:4/4
L:1/4
K:D
 z2 z A| d3/2 d/2 d d| d- A F A| d3/2 d/2 d e| d3 e| f3/2 e/2f/2 f/2 g|\
 a- f d d| e3/2 d/2 c B| A3 e| f3/2 e/2f/2 f/2 g| a- f d d| g3/2 f/2 g e|\
 d3 f| f3/2 e/2 d A| A- G F A| d3/2 d/2 d c| d4| A3/2 A/2 d e| f3 e|\
 d3/2 d/2 d f| e4| f3/2 e/2 d A| A- G F A| d3/2 d/2 d c| d3 z|
